src/shared/assets/icons/email.svg

<svg height="72" viewBox="0 0 72 72" width="72" xmlns="http://www.w3.org/2000/svg">
	<g fill="none" fill-rule="evenodd">
		<path d="M36,72 L36,72 C55.882251,72 72,55.882251 72,36 L72,36 C72,16.117749 55.882251,-3.65231026e-15 36,0 L36,0 C16.117749,3.65231026e-15 -2.4348735e-15,16.117749 0,36 L0,36 C2.4348735e-15,55.882251 16.117749,72 36,72 Z" fill="#000"/>
		<path d="M18,26.1623226 L18,46.5476129 C18,47.6566452 18.8117419,48.5554839 19.9300645,48.5554839 L51.7447742,48.5554839 C52.8619355,48.5554839 53.6748387,47.6461935 53.6748387,46.5476129 L53.6748387,26.1623226 C53.6748387,24.9452903 52.947871,24 51.7447742,24 L19.9300645,24 C18.6805161,24 18,24.9685161 18,26.1623226 M20.9334194,27.9379355 C20.9334194,27.4467097 21.2307097,27.1656774 21.7056774,27.1656774 C21.9994839,27.1656774 33.560129,34.4910968 34.2603871,34.9207742 L36.0696774,36.0460645 C36.6433548,35.6616774 37.2193548,35.3330323 37.8139355,34.9347097 C39.0274839,34.1589677 49.8251613,27.1656774 50.1224516,27.1656774 C50.5985806,27.1656774 50.8947097,27.4467097 50.8947097,27.9379355 C50.8947097,28.4581935 49.8925161,28.9749677 49.239871,29.3732903 C45.1393548,31.8723871 41.04,34.5967742 36.980129,37.1887742 C36.7432258,37.3490323 36.2845161,37.6916129 35.9407742,37.6393548 C35.5575484,37.580129 23.7936774,30.0224516 21.6534194,28.7636129 C21.3317419,28.5743226 20.9334194,28.4012903 20.9334194,27.9379355" fill="#FFF"/>
	</g>
</svg>

<svg height="72" viewBox="0 0 72 72" width="72" xmlns="http://www.w3.org/2000/svg"><g fill-rule="evenodd"><path d="M36 72c19.882 0 36-16.118 36-36S55.882 0 36 0 0 16.118 0 36s16.118 36 36 36"/><path d="M18 26.162v20.386c0 1.109.812 2.007 1.93 2.007h31.815c1.117 0 1.93-.909 1.93-2.007V26.162c0-1.217-.727-2.162-1.93-2.162H19.93c-1.25 0-1.93.969-1.93 2.162m2.933 1.776c0-.491.298-.772.773-.772.293 0 11.854 7.325 12.554 7.755l1.81 1.125c.573-.384 1.15-.713 1.744-1.111 1.213-.776 12.011-7.77 12.308-7.77.477 0 .773.282.773.773 0 .52-1.002 1.037-1.655 1.435-4.1 2.5-8.2 5.224-12.26 7.816-.237.16-.695.503-1.04.45-.382-.059-12.146-7.617-14.287-8.875-.321-.19-.72-.363-.72-.826" fill="#fff"/></g></svg>
